X:4
T:Springleik e. Tormod Saeteren #2 (#4)     % name
C:e. Tormod Saeteren, Folldal (1919 - 1989)     % composer
N:Springleik fr. Folldal     % info
Q:1/4=120     %Tempo
M:3/4     %Meter
L:1/8     %
K:G
(g2{ag} f<)d e>f |{f}g2 (b/g/b) a>g |(g>f) e<d e>f |{f}g2 {g}[a4A4] |
(g2{ag} f<)d e>f |{f}g2 (b/g/b) a>g |(g>f) e<d e>f |{f}g2  {F}[G4G,4] :|
|:(c>B A<)B c>(d | e>)(f g)e {c}d>B | c>e B<c A>B |G/A/F {F}A4 |
(c>B A<)B c>(d | e>)(f g)e {c}d>B | c>e B<c A>B | G/A/F {F}[G4G,4] :|]
W:
W:Taught by Marit Larsen Westling, 2/20/05; transcr. by Sarah Kirton, 2/22/05
W:Scandia Festival, Petaluma CA
W:
W:Most of the 16ths & dotted 8ths on the second beats were more like triplets - i.e. 1/3 + 2/3.
W:So the rhythm was softer than what's written here by a little bit.
W:But most of the rhythms were very angular.
W:
W:She referred to all of the (1/8 + 1/16 + 1/16) beats as "triplets."  But her transcriptions
W:from Mendocino summer '04 show these	rhythms as above, which is close to how
W:she plays these.


